src/assets/icons/caret.svg

<svg width="6" height="9" viewBox="0 0 6 9" fill="none" xmlns="http://www.w3.org/2000/svg">
    <path d="M0.626734 0.75C0.517882 0.75 0.425777 0.78556 0.350418 0.856681C0.283432 0.9199 0.249939 1.00287 0.249939 1.1056V2.05388C0.249939 2.15661 0.283432 2.24353 0.350418 2.31466C0.425777 2.37787 0.517882 2.40948 0.626734 2.40948H1.40544V3.15625C1.40544 3.25898 1.44312 3.3459 1.51848 3.41703C1.59384 3.48815 1.68176 3.52371 1.78224 3.52371H2.57351V4.25862C2.57351 4.35345 2.61119 4.43642 2.68655 4.50754C2.7619 4.57866 2.84982 4.61422 2.9503 4.61422H3.65365V5.06466H2.87494C2.77446 5.06466 2.68655 5.10022 2.61119 5.17134C2.53583 5.24246 2.49815 5.32543 2.49815 5.42026V6.16702H1.71944C1.61059 6.16702 1.51848 6.20259 1.44312 6.27371C1.37614 6.33692 1.34264 6.4199 1.34264 6.52263V7.25754H0.626734C0.517882 7.25754 0.425777 7.2931 0.350418 7.36422C0.283432 7.43534 0.249939 7.51832 0.249939 7.61315V8.64439C0.249939 8.73922 0.283432 8.8222 0.350418 8.89332C0.425777 8.96444 0.517882 9 0.626734 9H1.71944C1.81992 9 1.90784 8.96444 1.9832 8.89332C2.05855 8.8222 2.09623 8.73922 2.09623 8.64439V7.96875H2.87494C2.97542 7.96875 3.06334 7.93319 3.1387 7.86207C3.21406 7.79095 3.25174 7.70797 3.25174 7.61315V6.87823H4.03045C4.1393 6.87823 4.22722 6.84267 4.2942 6.77155C4.36956 6.70043 4.40724 6.61746 4.40724 6.52263V5.78771H5.12315C5.23201 5.78771 5.31992 5.75215 5.38691 5.68103C5.46227 5.60991 5.49995 5.52299 5.49995 5.42026V4.40086C5.49995 4.29813 5.46227 4.21121 5.38691 4.14009C5.31992 4.06896 5.23201 4.0334 5.12315 4.0334H4.34444V3.28664C4.34444 3.19181 4.30676 3.10884 4.23141 3.03772C4.15605 2.96659 4.06813 2.93103 3.96765 2.93103H3.18894V2.19612C3.18894 2.10129 3.15126 2.01832 3.0759 1.9472C3.00054 1.87608 2.91262 1.84052 2.81214 1.84052H2.02088V1.1056C2.02088 1.00287 1.9832 0.9199 1.90784 0.856681C1.84085 0.78556 1.75293 0.75 1.64408 0.75H0.626734Z" fill="white"/>
</svg>

<svg width="6" height="9" fill="none" xmlns="http://www.w3.org/2000/svg"><path d="M.627.75A.388.388 0 0 0 .35.857a.326.326 0 0 0-.1.249v.948c0 .103.033.19.1.26a.416.416 0 0 0 .277.095h.778v.747c0 .103.038.19.113.261a.372.372 0 0 0 .264.107h.792v.735c0 .094.037.177.113.249a.372.372 0 0 0 .263.106h.704v.45h-.78c-.1 0-.187.036-.263.107a.332.332 0 0 0-.113.25v.746H1.72a.388.388 0 0 0-.276.107.326.326 0 0 0-.1.249v.735H.627a.388.388 0 0 0-.277.106.352.352 0 0 0-.1.25v1.03c0 .095.033.178.1.25A.388.388 0 0 0 .627 9h1.092c.1 0 .189-.036.264-.107a.332.332 0 0 0 .113-.249V7.97h.779c.1 0 .188-.036.264-.107a.332.332 0 0 0 .113-.249v-.735h.778a.346.346 0 0 0 .264-.106.332.332 0 0 0 .113-.25v-.734h.716a.346.346 0 0 0 .264-.107.345.345 0 0 0 .113-.26V4.4a.345.345 0 0 0-.113-.26.346.346 0 0 0-.264-.108h-.779v-.746a.332.332 0 0 0-.113-.25.372.372 0 0 0-.263-.106h-.78v-.735a.332.332 0 0 0-.112-.249.372.372 0 0 0-.264-.106h-.791v-.735a.31.31 0 0 0-.113-.25.346.346 0 0 0-.264-.106H.627z" fill="#fff"/></svg>
